X:1
T:Partita IV Aria
T:BWV 828
T:J. S. Bach
%%score { ( 1 3 ) | ( 2 4 ) }
L:1/8
M:2/4
K:D
V:1 treble nm="Harp"
V:3 treble 
V:2 bass 
V:4 bass 
V:1
 A | G/4F/4G/4F/4 E2 D- | D C2 D- | DE/F/ GF | G/4F/4G/4F/4E z A | F E2 D- | D C2 D- | DE/F/ GF | %8
 G/4F/4G/4F/4E z E | F/^G/ A2 G/A/ | B/A/^G/F/ E/F/G/A/ | B/c/ d2 c/d/ | e/d/c/B/ A/B/c/d/ | %13
 e/f/ g2 f/e/ | f/a/g/f/ b/a/^g/f/ | e/a/^g/f/ e/d/c/B/ | A3 A | G/4F/4G/4F/4 E2 D- | D C2 D- | %19
 DE/F/ GF | G/4F/4G/4F/4E z A | F E2 D- | D C2 D- | DE/F/ GF | G/4F/4G/4F/4E z E | F/^G/ A2 G/A/ | %26
 B/A/^G/F/ E/F/G/A/ | B/c/ d2 c/d/ | e/d/c/B/ A/B/c/d/ | e/f/ g2 f/e/ | f/a/g/f/ b/a/^g/f/ | %31
 e/a/^g/f/ e/d/c/B/ | A3 e | d/4c/4d/4c/4 B2 A- | AB/c/ dc- | cd/e/ fB- | B^A z f | %37
 e/4d/4e/4d/4 c2 B/^A/ | B/d/c/B/ c/^d/e/f/ | g/b/a/g/ a/b/=c' | f/4e/4f/4e/4^d z B | g f2 e/^d/ | %42
 e/g/f/e/ d/c/B/A/ | f e2 d/c/ | d/f/e/d/ c/B/^A/B/ | e d2 =c/B/ | =c/g/ f2 =f | fB d/c/B/^A/ | %48
 B2 z d | F/A/ G2 F/G/ | A/G/F/E/ D/=c/B/A/ | B/G/F/E/ ^D/A/G/F/ | G/F/E/D/ C/G/F/E/ | %53
 F/D/C/B,/ ^A,/E/D/C/ | D/F/E/D/ E/F/G/A/ | B/G/A/d/ c/B/A/G/ | G/4F/4G/4F/4E z e | %57
 =f/^g/a- a/e/f/d/ | e/d/c/B/ A/G/=F/E/ | =F/^G/A- A/E/F/D/ | E/D/C/B,/ A,/G,/F,/E,/ | %61
 z/ F/ E2 D/C/ | D/F/E/D/ E/F/G/A/ | B/A/=c/B/ A/f/B/A/ | G/B/A/G/ A/B/c/d/ | e/d/=f/e/ d/b/e/d/ | %66
 c/e/d/c/ d/e/f/g/ | ad ec | [FAd]3 e | d/4c/4d/4c/4 B2 A- | AB/c/ dc- | cd/e/ fB- | B^A z f | %73
 e/4d/4e/4d/4 c2 B/^A/ | B/d/c/B/ c/^d/e/f/ | g/b/a/g/ a/b/=c' | f/4e/4f/4e/4^d z B | g f2 e/^d/ | %78
 e/g/f/e/ d/c/B/A/ | f e2 d/c/ | d/f/e/d/ c/B/^A/B/ | e d2 =c/B/ | =c/g/ f2 =f | fB d/c/B/^A/ | %84
 B2 z d | F/A/ G2 F/G/ | A/G/F/E/ D/=c/B/A/ | B/G/F/E/ ^D/A/G/F/ | G/F/E/D/ C/G/F/E/ | %89
 F/D/C/B,/ ^A,/E/D/C/ | D/F/E/D/ E/F/G/A/ | B/G/A/d/ c/B/A/G/ | G/4F/4G/4F/4E z e | %93
 =f/^g/a- a/e/f/d/ | e/d/c/B/ A/G/=F/E/ | =F/^G/A- A/E/F/D/ | E/D/C/B,/ A,/G,/F,/E,/ | %97
 z/ F/ E2 D/C/ | D/F/E/D/ E/F/G/A/ | B/A/=c/B/ A/f/B/A/ | G/B/A/G/ A/B/c/d/ | e/d/=f/e/ d/b/e/d/ | %102
 c/e/d/c/ d/e/f/g/ | ad ec | [FAd]3 z |] %105
V:2
 z | D z [A,C] z | [F,A,] z [E,G,] z | A,3 A, | A, z z [C,E,A,] | [D,F,A,] z [E,G,A,] z | %6
 [F,A,] z [G,A,] z | F,E,/D,/ C,D, | A,A,, z [A,C] | DC B,A, | ^G,A, G,F, | E,F, E,D, | %12
 C,D, C,B,, | A,,B,, C,A,, | D,D,, D,B,, | C,A,, E,E,, | A,,3 z | D z [A,C] z | [F,A,] z [E,G,] z | %19
 A,3 A, | A, z z [C,E,A,] | [D,F,A,] z [E,G,A,] z | [F,A,] z [G,A,] z | F,E,/D,/ C,D, | %24
 A,A,, z [A,C] | DC B,A, | ^G,A, G,F, | E,F, E,D, | C,D, C,B,, | A,,B,, C,A,, | D,D,, D,B,, | %31
 C,A,, E,E,, | A,,3 z | A, z [G,C] z | [F,D] z [E,G,] z | D,B,,/C,/ D,E, | %36
 F,/E,/F,/G,/ F,/E,/D,/C,/ | B,,/A,,/G,,/F,,/ E,,/D,,/E,,/F,,/ | G,, G,2 F, | E, =C2 A, | %40
 B,/A,/B,/=C/ B,/A,/G,/F,/ | E,/B,/A,/G,/ B,,/A,/G,/F,/ | G,B, EC, | D,/A,/G,/F,/ A,,/G,/F,/E,/ | %44
 F,A, D,F, | G,/G/F/E/ B,/F/E/D/ | E,/E/D/C/ G,/D/C/B,/ | ^A,,D, E,F, | %48
 B,/B,,/C,/D,/ E,/F,/^G,/^A,/ | B,/A,/B,/D/ C/B,/A,/G,/ | F,A, F,D, | G,A,, B,,^D, | E,G,, A,,C, | %53
 D,E,, F,,^A,, | B,,/D,/C,/B,,/ C,/D,/E,/F,/ | G,F,/E,/ F,G, | A,G,/F,/ E,/D,/C,/B,,/ | %57
 A,,[I:staff -1][D=F] [CE][B,D] |[I:staff +1] A,,[I:staff -1][EG] [CE][A,C] | %59
[I:staff +1] A,,[=F,D] [E,C][D,B,] | A,,[E,G,] [C,E,][A,,C,] | [D,,D,] z [F,,^A,,C,] z | %62
 B,,F, B,A, | G,E F,^D | E,B,[I:staff -1] ED |[I:staff +1] CA B,^G | A,E AG | z F,, G,,A,, | %68
 D,,3 z | A, z [G,C] z | [F,D] z [E,G,] z | D,B,,/C,/ D,E, | F,/E,/F,/G,/ F,/E,/D,/C,/ | %73
 B,,/A,,/G,,/F,,/ E,,/D,,/E,,/F,,/ | G,, G,2 F, | E, =C2 A, | B,/A,/B,/=C/ B,/A,/G,/F,/ | %77
 E,/B,/A,/G,/ B,,/A,/G,/F,/ | G,B, EC, | D,/A,/G,/F,/ A,,/G,/F,/E,/ | F,A, D,F, | %81
 G,/G/F/E/ B,/F/E/D/ | E,/E/D/C/ G,/D/C/B,/ | ^A,,D, E,F, | B,/B,,/C,/D,/ E,/F,/^G,/^A,/ | %85
 B,/A,/B,/D/ C/B,/A,/G,/ | F,A, F,D, | G,A,, B,,^D, | E,G,, A,,C, | D,E,, F,,^A,, | %90
 B,,/D,/C,/B,,/ C,/D,/E,/F,/ | G,F,/E,/ F,G, | A,G,/F,/ E,/D,/C,/B,,/ | %93
 A,,[I:staff -1][D=F] [CE][B,D] |[I:staff +1] A,,[I:staff -1][EG] [CE][A,C] | %95
[I:staff +1] A,,[=F,D] [E,C][D,B,] | A,,[E,G,] [C,E,][A,,C,] | [D,,D,] z [F,,^A,,C,] z | %98
 B,,F, B,A, | G,E F,^D | E,B,[I:staff -1] ED |[I:staff +1] CA B,^G | A,E AG | z F,, G,,A,, | %104
 D,,3 z |] %105
V:3
 x | x4 | x4 | z3 D | DC z E | x4 | x4 | A,3 [A,D] | DC x2 | x4 | x4 | x4 | x4 | x4 | x4 | x4 | %16
 x4 | x4 | x4 | z3 D | DC z E | x4 | x4 | A,3 [A,D] | DC x2 | x4 | x4 | x4 | x4 | x4 | x4 | x4 | %32
 x4 | x4 | x4 |[I:staff +1] F,2[I:staff -1] z D- | DC z2 | x4 | x4 | x4 | x4 | x4 | x4 | x4 | x4 | %45
 x4 | x4 | x4 | x4 | x4 | x4 | x4 | x4 | x4 | x4 | x4 | x4 | x4 | x4 | x4 | x4 | x4 | x4 | x4 | %64
 x4 | x4 | x4 | FA [GB][EA] | x4 | x4 | x4 |[I:staff +1] F,2[I:staff -1] z D- | DC z2 | x4 | x4 | %75
 x4 | x4 | x4 | x4 | x4 | x4 | x4 | x4 | x4 | x4 | x4 | x4 | x4 | x4 | x4 | x4 | x4 | x4 | x4 | %94
 x4 | x4 | x4 | x4 | x4 | x4 | x4 | x4 | x4 | FA [GB][EA] | x4 |] %105
V:4
 x | x4 | x4 | F,E,/D,/ C,D, | z2 A,,2- | A,,4- | A,,4- | A,,4 | x4 | x4 | x4 | x4 | x4 | x4 | x4 | %15
 x4 | x4 | x4 | x4 | F,E,/D,/ C,D, | z2 A,,2- | A,,4- | A,,4- | A,,4 | x4 | x4 | x4 | x4 | x4 | %29
 x4 | x4 | x4 | x4 | x4 | x4 | x4 | x4 | x4 | x4 | x4 | x4 | x4 | x4 | x4 | x4 | x4 | x4 | x4 | %48
 x4 | x4 | x4 | x4 | x4 | x4 | x4 | x4 | x4 | x4 | x4 | x4 | x4 | x4 | x4 | x4 | x4 | x4 | x4 | %67
 x4 | x4 | x4 | x4 | x4 | x4 | x4 | x4 | x4 | x4 | x4 | x4 | x4 | x4 | x4 | x4 | x4 | x4 | x4 | %86
 x4 | x4 | x4 | x4 | x4 | x4 | x4 | x4 | x4 | x4 | x4 | x4 | x4 | x4 | x4 | x4 | x4 | x4 | x4 |] %105

